X:1
T:087 - Calvário
T:Letra: W. M'K. Darwood
T:Trad.: William Edwin Entzminger (1859-1930)
T:Música: John Robson Sweney (1837-1899)
M:4/4
L:1/8
Q:1/4=90
K:Bb
V:1
z>d c>B | "Bb"F4- F>D F>B | "F7"A4 z>e d>c | G4- G>A G>F | "Bb"D4 z>d c>B | F4- F>D F>B | "Eb"G4 z>e d>^c | "Bb/F"d4- d>B "F7"A>c | "Bb"B4 z2 || F2 | "F7"c>=B c4 d2 | "Bb"B>G F4 F2 | "Eb"GG ed c2 "Edim"B2 | "F"c4- "F7"Hc2 G2 | "Bb"d>c B4 A2 | "Eb"G>B e4 G2 | "Bb/F"F3B AB "F7"d>c | "Bb"B4 |]
w: 1.~Oh, co-mo foi_ que meu Je-sus As-sim so-freu_ na tris-te cruz? Não só na cruz,_ mas no jar-dim A-go-ni-zou,_ e foi por mim!     A-li na cruz, a-li na cruz,    Oh, sim, Je-sus por mim so-freu!_             A-li na cruz, a-li na cruz,    Oh, sim, Je-sus por mim mor-reu!  
w: 2.~O gran-dehor-ror_ daes-cu-ri-dão  A-pa-vo-rou_ a mul-ti-dão; Ras-ga-doo véu_ lhes fez sa-ber Que ter-mi-nou_ o seu so-frer.  
w: 3.~Que dor cru-el_ na cruz so-freu! Seu san-guea-li_ Je-sus ver-teu; Sim, foi por mim,_ pra me sal-var, Pa-raeu, en-fim,_ no céu mo-rar.
W:
W: 
W: 1. Oh, como foi que meu Jesus
W: Assim sofreu na triste cruz?
W: Não só na cruz, mas no jardim
W: Agonizou, e foi por mim!
W: 
W:    (Estribilho)
W:    Ali na cruz, ali na cruz,
W:    Oh, sim, Jesus por mim sofreu!
W:    Ali na cruz, ali na cruz,
W:    Oh, sim, Jesus por mim morreu!
W: 
W:
W:
W: 2. O grande horror da escuridão 
W: Apavorou a multidão;
W: Rasgado o véu lhes fez saber
W: Que terminou o seu sofrer.
W: 
W: 3. Que dor cruel na cruz sofreu!
W: Seu sangue ali Jesus verteu;
W: Sim, foi por mim, pra me salvar,
W: Para eu, enfim, no céu morar.
W:         
W: 





%wordsfont Times-Roman 13.0
%vocalfont Times-Roman 13.0
